src/smileys-emotion/face-concerned/1F627.svg

<svg id="emoji" viewBox="0 0 72 72" xmlns="http://www.w3.org/2000/svg">
  <g id="grid">
    <path fill="#B3B3B3" d="M68,4v64H4V4H68 M72,0H0v72h72V0z"/>
    <path fill="none" stroke="#00A5FF" stroke-miterlimit="10" stroke-width="0.1" d="M12.923,10.9583h46.1539 c1.0621,0,1.9231,0.861,1.9231,1.9231v0v46.1538c0,1.0621-0.861,1.9231-1.9231,1.9231H12.9231 c-1.0621,0-1.9231-0.861-1.9231-1.9231l0,0V12.8813C11,11.8193,11.861,10.9583,12.923,10.9583L12.923,10.9583z"/>
    <path fill="none" stroke="#00A5FF" stroke-miterlimit="10" stroke-width="0.1" d="M18.2537,4h35.4926C54.991,4,56,5.009,56,6.2537 v59.4926C56,66.991,54.991,68,53.7463,68H18.2537C17.009,68,16,66.991,16,65.7463V6.2537C16,5.009,17.009,4,18.2537,4z"/>
    <path fill="none" stroke="#00A5FF" stroke-miterlimit="10" stroke-width="0.1" d="M68,18.2537v35.4926 C68,54.991,66.991,56,65.7463,56H6.2537C5.009,56,4,54.991,4,53.7463V18.2537C4,17.009,5.009,16,6.2537,16h59.4926 C66.991,16,68,17.009,68,18.2537z"/>
    <circle cx="36" cy="36" r="29" fill="none" stroke="#00A5FF" stroke-miterlimit="10" stroke-width="0.1"/>
  </g>
  <g id="color">
    <path fill="#FCEA2B" d="M36,13c-12.6823,0-23,10.3177-23,23c0,12.6822,10.3177,23,23,23c12.6822,0,23-10.3178,23-23 C59,23.3177,48.6822,13,36,13z"/>
    <path fill="#FFFFFF" d="M28,46c0,0-0.1191-2.9038,0-3c1.3686-0.7308,3.9645-1,8-1c4,0,6.6522,0.2795,8,1c0.0878,0.0572,0,3,0,3H28z"/>
  </g>
  <g id="hair"/>
  <g id="skin"/>
  <g id="skin-shadow"/>
  <g id="line">
    <circle cx="36" cy="36" r="23" fill="none" stroke="#000000" stroke-miterlimit="10" stroke-width="2"/>
    <path d="M30,30.9252c0,1.6568-1.3448,3-3,3c-1.6553,0-3-1.3433-3-3c0-1.6552,1.3447-3,3-3C28.6552,27.9252,30,29.27,30,30.9252"/>
    <path d="M48,30.9252c0,1.6568-1.3447,3-3,3s-3-1.3433-3-3c0-1.6552,1.3447-3,3-3S48,29.27,48,30.9252"/>
    <path fill="none" stroke="#000000" stroke-linecap="round" stroke-linejoin="round" stroke-miterlimit="10" stroke-width="2" d="M28,46c0,0-0.1191-2.9038,0-3c1.3686-0.7308,3.9645-1,8-1c4,0,6.6522,0.2795,8,1c0.0878,0.0572,0,3,0,3H28z"/>
    <path fill="none" stroke="#000000" stroke-linecap="round" stroke-linejoin="round" stroke-miterlimit="10" stroke-width="2" d="M23.1483,24.2501c0.4872,0.2275,2.6277,1.1608,5.1639,0.3327c2.0576-0.6718,3.1771-2.1117,3.5396-2.6239"/>
    <path fill="none" stroke="#000000" stroke-linecap="round" stroke-linejoin="round" stroke-miterlimit="10" stroke-width="2" d="M48.8517,24.2501c-0.4872,0.2275-2.6277,1.1608-5.1639,0.3327c-2.0576-0.6718-3.1771-2.1117-3.5396-2.6239"/>
  </g>
</svg>

<svg id="emoji" version="1.1" viewBox="0 0 72 72" xmlns="http://www.w3.org/2000/svg">
 <g id="grid">
  <path d="M68,4V68H4V4H68m4-4H0V72H72V0Z" fill="#b3b3b3"/>
  <path d="M12.923,10.9583H59.077A1.923,1.923,0,0,1,61,12.8813V59.0352a1.9231,1.9231,0,0,1-1.9231,1.9231H12.9231A1.9231,1.9231,0,0,1,11,59.0352V12.8813a1.923,1.923,0,0,1,1.923-1.923Z" fill="none" stroke="#00a5ff" stroke-miterlimit="10" stroke-width=".1"/>
  <rect x="16" y="4" width="40" height="64" rx="2.2537" fill="none" stroke="#00a5ff" stroke-miterlimit="10" stroke-width=".1"/>
  <rect transform="rotate(90 36 36)" x="16" y="4" width="40" height="64" rx="2.2537" fill="none" stroke="#00a5ff" stroke-miterlimit="10" stroke-width=".1"/>
  <circle cx="36" cy="36" r="29" fill="none" stroke="#00a5ff" stroke-miterlimit="10" stroke-width=".1"/>
 </g>
 <g id="line-supplement">
  <path d="m42.847 45.658c0-2.592-3.834-4.694-6.869-4.694s-6.869 2.101-6.869 4.694 3.659 0.9248 6.694 0.9248 7.044 1.6669 7.044-0.9248z"/>
 </g>
 <g id="color">
  <path d="m35.977 12.958a23 23 0 1 0 23 23 23.026 23.026 0 0 0-23-23z" fill="#fcea2b"/>
  <path d="m42.847 45.658c0-2.592-3.834-4.694-6.869-4.694s-6.869 2.101-6.869 4.694 3.659 0.9248 6.694 0.9248 7.044 1.6669 7.044-0.9248z"/>
 </g>
 <g id="line">
  <path d="m29.356 22.669a8.44 8.44 0 0 0-9.0659 4.4981" fill="none" stroke="#000" stroke-linecap="round" stroke-linejoin="round" stroke-width="2"/>
  <path d="m51.664 27.167a8.44 8.44 0 0 0-9.0659-4.4981" fill="none" stroke="#000" stroke-linecap="round" stroke-linejoin="round" stroke-width="2"/>
  <circle cx="35.977" cy="35.958" r="23" fill="none" stroke="#000" stroke-miterlimit="10" stroke-width="2"/>
  <path d="m42.847 45.658c0-2.592-3.834-4.694-6.869-4.694s-6.869 2.101-6.869 4.694 3.659 0.9248 6.694 0.9248 7.044 1.6669 7.044-0.9248z" fill="none" stroke="#000" stroke-miterlimit="10" stroke-width="2"/>
  <path d="m29.977 32.958a3 3 0 1 1-3-3 3.0011 3.0011 0 0 1 3 3"/>
  <path d="m47.977 32.958a3 3 0 1 1-3-3 3.0011 3.0011 0 0 1 3 3"/>
 </g>
</svg>
